findly-builder/apps/searchassist/src/assets/icons/onboarding/sample-data.svg

<svg width="48" height="49" viewBox="0 0 48 49" fill="none" xmlns="http://www.w3.org/2000/svg">
<path d="M4 38V13H44V36C44 38.2 42.2 40 40 40H6C4.9 40 4 39.1 4 38Z" fill="url(#paint0_linear_3864_42756)"/>
<path d="M38.5 22H15.5C15.224 22 15 21.776 15 21.5V20.5C15 20.224 15.224 20 15.5 20H38.5C38.776 20 39 20.224 39 20.5V21.5C39 21.776 38.776 22 38.5 22Z" fill="#0F94BF"/>
<path d="M38.5 27H15.5C15.224 27 15 26.776 15 26.5V25.5C15 25.224 15.224 25 15.5 25H38.5C38.776 25 39 25.224 39 25.5V26.5C39 26.776 38.776 27 38.5 27Z" fill="#0F94BF"/>
<path d="M38.5 32H15.5C15.224 32 15 31.776 15 31.5V30.5C15 30.224 15.224 30 15.5 30H38.5C38.776 30 39 30.224 39 30.5V31.5C39 31.776 38.776 32 38.5 32Z" fill="#0F94BF"/>
<path d="M44 10V13H4V10C4 8.9 4.9 8 6 8H42C43.1 8 44 8.9 44 10Z" fill="url(#paint1_linear_3864_42756)"/>
<path d="M9.5 22H10.5C10.776 22 11 21.776 11 21.5V20.5C11 20.224 10.776 20 10.5 20H9.5C9.224 20 9 20.224 9 20.5V21.5C9 21.776 9.224 22 9.5 22Z" fill="#0F94BF"/>
<path d="M9.5 27H10.5C10.776 27 11 26.776 11 26.5V25.5C11 25.224 10.776 25 10.5 25H9.5C9.224 25 9 25.224 9 25.5V26.5C9 26.776 9.224 27 9.5 27Z" fill="#0F94BF"/>
<path d="M9.5 32H10.5C10.776 32 11 31.776 11 31.5V30.5C11 30.224 10.776 30 10.5 30H9.5C9.224 30 9 30.224 9 30.5V31.5C9 31.776 9.224 32 9.5 32Z" fill="#0F94BF"/>
<path opacity="0.15" d="M44 30.018C42.176 27.583 39.277 26 36 26C30.477 26 26 30.477 26 36C26 37.423 26.302 38.774 26.838 40H40C42.2 40 44 38.2 44 36V30.018Z" fill="url(#paint2_radial_3864_42756)"/>
<path d="M43.9921 42.2246L42.2241 43.9926L46.1591 47.9276C46.2571 48.0256 46.4151 48.0256 46.5131 47.9276L47.9271 46.5136C48.0251 46.4156 48.0251 46.2576 47.9271 46.1596L43.9921 42.2246Z" fill="#199BE2"/>
<path d="M41.8 40.0332L40.033 41.8002L42.224 43.9922L43.992 42.2242L41.8 40.0332Z" fill="url(#paint3_radial_3864_42756)"/>
<path d="M36 44C40.4183 44 44 40.4183 44 36C44 31.5817 40.4183 28 36 28C31.5817 28 28 31.5817 28 36C28 40.4183 31.5817 44 36 44Z" fill="url(#paint4_linear_3864_42756)"/>
<defs>
<linearGradient id="paint0_linear_3864_42756" x1="13.042" y1="9.959" x2="31.564" y2="36.751" gradientUnits="userSpaceOnUse">
<stop stop-color="#7DD8F3"/>
<stop offset="1" stop-color="#45B0D0"/>
</linearGradient>
<linearGradient id="paint1_linear_3864_42756" x1="4.808" y1="6.78" x2="42.75" y2="14.495" gradientUnits="userSpaceOnUse">
<stop stop-color="#0077D2"/>
<stop offset="1" stop-color="#0B59A2"/>
</linearGradient>
<radialGradient id="paint2_radial_3864_42756" cx="0" cy="0" r="1" gradientUnits="userSpaceOnUse" gradientTransform="translate(36.018 35.992) scale(9.941)">
<stop/>
<stop offset="1" stop-opacity="0"/>
</radialGradient>
<radialGradient id="paint3_radial_3864_42756" cx="0" cy="0" r="1" gradientUnits="userSpaceOnUse" gradientTransform="translate(36.012 36.0482) scale(9.802)">
<stop offset="0.693" stop-color="#006185"/>
<stop offset="0.921" stop-color="#35C1F1"/>
</radialGradient>
<linearGradient id="paint4_linear_3864_42756" x1="30.455" y1="30.455" x2="41.669" y2="41.669" gradientUnits="userSpaceOnUse">
<stop stop-color="#A3FFFF"/>
<stop offset="0.223" stop-color="#9DFBFF"/>
<stop offset="0.53" stop-color="#8BF1FF"/>
<stop offset="0.885" stop-color="#6EE0FF"/>
<stop offset="1" stop-color="#63DAFF"/>
</linearGradient>
</defs>
</svg>

<svg width="48" height="49" fill="none" xmlns="http://www.w3.org/2000/svg"><path d="M4 38V13h40v23c0 2.2-1.8 4-4 4H6c-1.1 0-2-.9-2-2Z" fill="url(#a)"/><path d="M38.5 22h-23a.5.5 0 0 1-.5-.5v-1a.5.5 0 0 1 .5-.5h23a.5.5 0 0 1 .5.5v1a.5.5 0 0 1-.5.5Zm0 5h-23a.5.5 0 0 1-.5-.5v-1a.5.5 0 0 1 .5-.5h23a.5.5 0 0 1 .5.5v1a.5.5 0 0 1-.5.5Zm0 5h-23a.5.5 0 0 1-.5-.5v-1a.5.5 0 0 1 .5-.5h23a.5.5 0 0 1 .5.5v1a.5.5 0 0 1-.5.5Z" fill="#0F94BF"/><path d="M44 10v3H4v-3c0-1.1.9-2 2-2h36c1.1 0 2 .9 2 2Z" fill="url(#b)"/><path d="M9.5 22h1a.5.5 0 0 0 .5-.5v-1a.5.5 0 0 0-.5-.5h-1a.5.5 0 0 0-.5.5v1a.5.5 0 0 0 .5.5Zm0 5h1a.5.5 0 0 0 .5-.5v-1a.5.5 0 0 0-.5-.5h-1a.5.5 0 0 0-.5.5v1a.5.5 0 0 0 .5.5Zm0 5h1a.5.5 0 0 0 .5-.5v-1a.5.5 0 0 0-.5-.5h-1a.5.5 0 0 0-.5.5v1a.5.5 0 0 0 .5.5Z" fill="#0F94BF"/><path opacity=".15" d="M44 30.018C42.176 27.583 39.277 26 36 26c-5.523 0-10 4.477-10 10 0 1.423.302 2.774.838 4H40c2.2 0 4-1.8 4-4v-5.982Z" fill="url(#c)"/><path d="m43.992 42.225-1.768 1.768 3.935 3.935a.25.25 0 0 0 .354 0l1.414-1.414a.25.25 0 0 0 0-.354l-3.935-3.935Z" fill="#199BE2"/><path d="M41.8 40.033 40.033 41.8l2.191 2.192 1.768-1.768-2.192-2.19Z" fill="url(#d)"/><path d="M36 44a8 8 0 1 0 0-16 8 8 0 0 0 0 16Z" fill="url(#e)"/><defs><linearGradient id="a" x1="13.042" y1="9.959" x2="31.564" y2="36.751" gradientUnits="userSpaceOnUse"><stop stop-color="#7DD8F3"/><stop offset="1" stop-color="#45B0D0"/></linearGradient><linearGradient id="b" x1="4.808" y1="6.78" x2="42.75" y2="14.495" gradientUnits="userSpaceOnUse"><stop stop-color="#0077D2"/><stop offset="1" stop-color="#0B59A2"/></linearGradient><linearGradient id="e" x1="30.455" y1="30.455" x2="41.669" y2="41.669" gradientUnits="userSpaceOnUse"><stop stop-color="#A3FFFF"/><stop offset=".223" stop-color="#9DFBFF"/><stop offset=".53" stop-color="#8BF1FF"/><stop offset=".885" stop-color="#6EE0FF"/><stop offset="1" stop-color="#63DAFF"/></linearGradient><radialGradient id="c" cx="0" cy="0" r="1" gradientUnits="userSpaceOnUse" gradientTransform="translate(36.018 35.992) scale(9.941)"><stop/><stop offset="1" stop-opacity="0"/></radialGradient><radialGradient id="d" cx="0" cy="0" r="1" gradientUnits="userSpaceOnUse" gradientTransform="translate(36.012 36.048) scale(9.802)"><stop offset=".693" stop-color="#006185"/><stop offset=".921" stop-color="#35C1F1"/></radialGradient></defs></svg>
